X: 40260
T: To Drive The Cold Winter Away
R: jig
M: 6/8
K: Eminor
|:E|G2 E B2 e|d>cB g2 G|A2 B cBA|B3- B2:|
e|d2 B dcB|c2 A cBA|B2 G F2 E|g3- gfe|
d2 G dd/c/B|c>BA c2 d|BAG FE^D|E3- E2||

